src/DGGeoclicker/skin/light/img/DGPopup__pathIcon_light.svg

<svg xmlns="http://www.w3.org/2000/svg" width="20" height="7"><path fill="#70A3D8" d="M16.5 0c-1.762 0-3.205 1.306-3.449 3h-8.102c-.231-1.142-1.239-2-2.449-2-1.381 0-2.5 1.119-2.5 2.5s1.119 2.5 2.5 2.5c1.21 0 2.218-.858 2.449-2h8.102c.244 1.693 1.688 3 3.449 3 1.933 0 3.5-1.567 3.5-3.5 0-1.934-1.567-3.5-3.5-3.5z"/><path d="M1 4.5c0-1.381 1.119-2.5 2.5-2.5.431 0 .834.113 1.188.305-.424-.776-1.241-1.305-2.188-1.305-1.381 0-2.5 1.119-2.5 2.5 0 .948.534 1.764 1.312 2.188-.193-.355-.312-.755-.312-1.188zm4.949-.5h8.102c.244-1.694 1.688-3 3.449-3 .711 0 1.369.215 1.922.578-.626-.949-1.699-1.578-2.922-1.578-1.762 0-3.205 1.306-3.449 3h-7.562c.221.292.385.628.46 1z" fill="#5982AD"/></svg>

<svg xmlns="http://www.w3.org/2000/svg" width="20" height="7">
    <path d="M 16.5,0 C 14.738,0 13.295,1.306 13.051,3 H 4.949 C 4.718,1.858 3.71,1 2.5,1 1.119,1 0,2.119 0,3.5 0,4.881 1.119,6 2.5,6 3.71,6 4.718,5.142 4.949,4 h 8.102 C 13.295,5.693 14.739,7 16.5,7 18.433,7 20,5.433 20,3.5 20,1.566 18.433,0 16.5,0 z" fill="#70a3d8"/>
    <path d="M 1,4.5 C 1,3.119 2.119,2 3.5,2 3.931,2 4.334,2.113 4.688,2.305 4.264,1.529 3.447,1 2.5,1 1.119,1 0,2.119 0,3.5 0,4.448 0.534,5.264 1.312,5.688 1.119,5.333 1,4.933 1,4.5 z M 5.949,4 h 8.102 C 14.295,2.306 15.739,1 17.5,1 18.211,1 18.869,1.215 19.422,1.578 18.796,0.629 17.723,0 16.5,0 14.738,0 13.295,1.306 13.051,3 H 5.489 c 0.221,0.292 0.385,0.628 0.46,1 z" fill="#5982ad"/>
</svg>
